app/assets/images/heroicons/solid/speaker-x-mark.svg

<svg width="24" height="24" viewBox="0 0 24 24" fill="none" xmlns="http://www.w3.org/2000/svg">
<path d="M13.5 4.06069C13.5 2.72433 11.8843 2.05508 10.9393 3.00003L6.43934 7.50003H4.50905C3.36772 7.50003 2.19106 8.16447 1.8493 9.40508C1.62147 10.2322 1.5 11.1025 1.5 12C1.5 12.8975 1.62147 13.7679 1.8493 14.595C2.19106 15.8356 3.36772 16.5 4.50905 16.5H6.43934L10.9393 21C11.8843 21.945 13.5 21.2757 13.5 19.9394V4.06069Z" fill="#0F172A"/>
<path d="M17.7803 9.21969C17.4874 8.92679 17.0126 8.92679 16.7197 9.21969C16.4268 9.51258 16.4268 9.98745 16.7197 10.2803L18.4393 12L16.7197 13.7197C16.4268 14.0126 16.4268 14.4875 16.7197 14.7803C17.0126 15.0732 17.4874 15.0732 17.7803 14.7803L19.5 13.0607L21.2197 14.7803C21.5126 15.0732 21.9874 15.0732 22.2803 14.7803C22.5732 14.4875 22.5732 14.0126 22.2803 13.7197L20.5607 12L22.2803 10.2803C22.5732 9.98745 22.5732 9.51258 22.2803 9.21969C21.9874 8.92679 21.5126 8.92679 21.2197 9.21969L19.5 10.9394L17.7803 9.21969Z" fill="#0F172A"/>
</svg>

<svg xmlns="http://www.w3.org/2000/svg" viewBox="0 0 24 24" fill="currentColor" aria-hidden="true" data-slot="icon">
  <path d="M13.5 4.06c0-1.336-1.616-2.005-2.56-1.06l-4.5 4.5H4.508c-1.141 0-2.318.664-2.66 1.905A9.76 9.76 0 0 0 1.5 12c0 .898.121 1.768.35 2.595.341 1.24 1.518 1.905 2.659 1.905h1.93l4.5 4.5c.945.945 2.561.276 2.561-1.06V4.06ZM17.78 9.22a.75.75 0 1 0-1.06 1.06L18.44 12l-1.72 1.72a.75.75 0 1 0 1.06 1.06l1.72-1.72 1.72 1.72a.75.75 0 1 0 1.06-1.06L20.56 12l1.72-1.72a.75.75 0 1 0-1.06-1.06l-1.72 1.72-1.72-1.72Z"/>
</svg>
